!!!Genre:	Freylekh
!!!Mode:	Minor
!!!Edition:	2015
!!!Listening/dance:	dance
!!!Free rhythm?:	No
!!!Secondary Modes:	10-18
!!!:	*B-:
!!!One_Mode:	no
**kern
*I"P1
*clefG2
*k[b-e-]
*g:
*M2/4
*>A
=1
8gL
8dJ
4g
=2
8r
8dL
8g
8b-J
=3
16ddLL
16ddJ
8b-J
8aL
8gJ
=4
16aLL
16b-J
8ccJ
16b-LL
16aJ
8gJ
=5
8gL
8dJ
4g
=6
8r
8dL
8g
8b-J
=7
16ddLL
16ddJ
8b-J
8aL
8gJ
=8
4g
4gg
=9:|!
2g
*>bM
*B-:
=10!|:
*>B
8f
4b-
8cc
=11
4dd
4ee-
=12
(16dd^LL
16ee-J
8ddJ)
(16cc^LL
16ddJ
8ccJ)
=13
(16b-^LL
16ccJ
8b-J)
4f
=14
8f
4b-
8cc
=15
4dd
4ee-
=16
8ddL
16ccL
16ddJJ
8ccL
8b-J
=17
2ff
=18:|!
2b-
*>eM
*g:
=19!|:
*>C
2dd
=20
2cc#X
=21
16b-LL
16aJ
8gJ
8aL
8b-J
=22
16ccnLL
16ccJ
8b-J
8aL
8gJ
=23
2dd
=24
2cc#X
=25
16b-LL
16aJ
8gJ
8aL
8b-J
=26
4g
4gg
=27:|!
2g
==
*-
